assets/images/icons/forward_seconds.svg

<!DOCTYPE svg PUBLIC "-//W3C//DTD SVG 1.1//EN" "http://www.w3.org/Graphics/SVG/1.1/DTD/svg11.dtd">
<!-- Uploaded to: SVG Repo, www.svgrepo.com, Transformed by: SVG Repo Mixer Tools -->
<svg width="800px" height="800px" viewBox="0 0 24 24" fill="none" xmlns="http://www.w3.org/2000/svg">
<g id="SVGRepo_bgCarrier" stroke-width="0"/>
<g id="SVGRepo_tracerCarrier" stroke-linecap="round" stroke-linejoin="round"/>
<g id="SVGRepo_iconCarrier"> <path d="M19.6916 7.34849C19.4416 7.01849 18.9716 6.94849 18.6416 7.19849C18.3116 7.44849 18.2416 7.91849 18.4916 8.24849C19.5716 9.68849 20.1416 11.3685 20.1416 13.1085C20.1416 17.5985 16.4916 21.2485 12.0016 21.2485C7.51156 21.2485 3.86156 17.5985 3.86156 13.1085C3.86156 8.61849 7.51156 4.97849 12.0016 4.97849C12.5816 4.97849 13.1716 5.04849 13.8116 5.19849C13.8416 5.20849 13.8716 5.19849 13.9116 5.19849C13.9316 5.19849 13.9616 5.21849 13.9816 5.21849C14.0116 5.21849 14.0316 5.20849 14.0616 5.20849C14.1016 5.20849 14.1316 5.19849 14.1616 5.18849C14.2116 5.17849 14.2616 5.15849 14.3116 5.12849C14.3416 5.10849 14.3816 5.09849 14.4116 5.07849C14.4216 5.06849 14.4416 5.06849 14.4516 5.05849C14.4816 5.03849 14.4916 5.00849 14.5116 4.98849C14.5516 4.94849 14.5816 4.91849 14.6116 4.86849C14.6416 4.82849 14.6516 4.77849 14.6716 4.73849C14.6816 4.70849 14.7016 4.67849 14.7116 4.64849C14.7116 4.62849 14.7116 4.61849 14.7116 4.59849C14.7216 4.54849 14.7216 4.49849 14.7116 4.44849C14.7116 4.39849 14.7116 4.35849 14.7016 4.30849C14.6916 4.26849 14.6716 4.22849 14.6516 4.17849C14.6316 4.12849 14.6116 4.07849 14.5816 4.03849C14.5716 4.01849 14.5716 4.00849 14.5616 3.99849L12.5816 1.52849C12.3216 1.20849 11.8516 1.15849 11.5316 1.40849C11.2116 1.66849 11.1616 2.13849 11.4116 2.45849L12.2316 3.47849C12.1516 3.47849 12.0716 3.46849 11.9916 3.46849C6.68156 3.46849 2.35156 7.78849 2.35156 13.1085C2.35156 18.4285 6.67156 22.7485 11.9916 22.7485C17.3116 22.7485 21.6316 18.4285 21.6316 13.1085C21.6416 11.0385 20.9616 9.04849 19.6916 7.34849Z" fill="#5A121A"/> <path d="M9.5415 16.6708C9.1315 16.6708 8.7915 16.3308 8.7915 15.9208V12.5308L8.6015 12.7508C8.3215 13.0608 7.8515 13.0808 7.5415 12.8108C7.2315 12.5308 7.2115 12.0608 7.4815 11.7508L8.9815 10.0808C9.1915 9.85081 9.5215 9.77081 9.8115 9.88081C10.1015 9.99081 10.2915 10.2708 10.2915 10.5808V15.9308C10.2915 16.3408 9.9615 16.6708 9.5415 16.6708Z" fill="#5A121A"/> <path d="M14 16.6703C12.48 16.6703 11.25 15.4403 11.25 13.9203V12.5703C11.25 11.0503 12.48 9.82031 14 9.82031C15.52 9.82031 16.75 11.0503 16.75 12.5703V13.9203C16.75 15.4403 15.52 16.6703 14 16.6703ZM14 11.3303C13.31 11.3303 12.75 11.8903 12.75 12.5803V13.9303C12.75 14.6203 13.31 15.1803 14 15.1803C14.69 15.1803 15.25 14.6203 15.25 13.9303V12.5803C15.25 11.8903 14.69 11.3303 14 11.3303Z" fill="#5A121A"/> </g>
</svg>

<svg xmlns="http://www.w3.org/2000/svg" width="800" height="800" fill="none" viewBox="0 0 24 24"><g fill="#5A121A"><path d="M19.692 7.348a.75.75 0 0 0-1.2.9c1.08 1.44 1.65 3.12 1.65 4.86 0 4.49-3.65 8.14-8.14 8.14s-8.14-3.65-8.14-8.14 3.65-8.13 8.14-8.13c.58 0 1.17.07 1.81.22.03.01.06 0 .1 0 .02 0 .05.02.07.02.03 0 .05-.01.08-.01.04 0 .07-.01.1-.02.05-.01.1-.03.15-.06.03-.02.07-.03.1-.05.01-.01.03-.01.04-.02.03-.02.04-.05.06-.07a.58.58 0 0 0 .1-.12c.03-.04.04-.09.06-.13.01-.03.03-.06.04-.09v-.05c.01-.05.01-.1 0-.15 0-.05 0-.09-.01-.14-.01-.04-.03-.08-.05-.13a.61.61 0 0 0-.07-.14c-.01-.02-.01-.03-.02-.04l-1.98-2.47a.757.757 0 0 0-1.05-.12c-.32.26-.37.73-.12 1.05l.82 1.02c-.08 0-.16-.01-.24-.01-5.31 0-9.64 4.32-9.64 9.64s4.32 9.64 9.64 9.64 9.64-4.32 9.64-9.64c.01-2.07-.67-4.06-1.94-5.76Z"/><path d="M9.541 16.67c-.41 0-.75-.34-.75-.75v-3.39l-.19.22c-.28.31-.75.33-1.06.06a.756.756 0 0 1-.06-1.06l1.5-1.67c.21-.23.54-.31.83-.2.29.11.48.39.48.7v5.35c0 .41-.33.74-.75.74ZM14 16.67c-1.52 0-2.75-1.23-2.75-2.75v-1.35c0-1.52 1.23-2.75 2.75-2.75s2.75 1.23 2.75 2.75v1.35c0 1.52-1.23 2.75-2.75 2.75Zm0-5.34c-.69 0-1.25.56-1.25 1.25v1.35a1.25 1.25 0 0 0 2.5 0v-1.35c0-.69-.56-1.25-1.25-1.25Z"/></g></svg>
